images/jguzmanlogo-alt2.svg

<svg fill="none" height="168" viewBox="0 0 173 168" width="173" xmlns="http://www.w3.org/2000/svg"><g fill="#fff"><circle cx="84" cy="15" r="15"/><path clip-rule="evenodd" d="m84.6051 97.5238-5.3682 31.7252c-1.6125 12.023-6.7282 21.541-15.3469 28.555-8.6188 7.013-19.2949 10.408-32.0284 10.186-6.2278-.112-12.1775-1.475-17.8492-4.091-5.67167-2.561-10.34248-6.095-14.0124-10.604l11.677-14.361c5.2269 6.624 11.7882 10.047 19.6841 10.27 6.1166.223 11.3434-1.392 15.6806-4.843 4.3372-3.395 7.2842-8.21 8.8412-14.444l1.3345-5.427 8.7153-55.637 3.3787-18.1698 1.4343-8.6832h23.2543l-4.7854 28.2814c2.3229-6.2359 5.4794-11.7008 9.4695-16.3945 7.4509-8.7554 16.8209-13.0495 28.1079-12.8822 9.62.2231 16.793 2.7085 21.519 9.4563l1.726-8.6996h22.963l-14.763 87.4146c-1.613 12.046-6.728 21.582-15.347 28.608-8.619 7.027-19.295 10.429-32.028 10.206-6.228-.112-12.1779-1.478-17.8496-4.099-5.6717-2.565-10.3425-6.107-14.0124-10.624l11.677-14.388c5.2269 6.637 11.788 10.066 19.684 10.289 6.117.223 11.344-1.394 15.681-4.851 4.337-3.402 7.284-8.226 8.841-14.472l1.334-5.437c-6.561 6.58-13.929 10.759-22.103 10.536-8.785-.112-15.7635-3.374-20.9348-9.787-5.1712-6.469-8.0071-14.862-8.5075-25.1788-.0385-.7855-.0607-1.6036-.0666-2.4544zm26.8399 12.9102c-2.168-3.178-3.252-7.389-3.252-12.6307-.056-2.5095.111-5.7998.5-9.8708 1.056-8.3092 3.67-14.9734 7.84-19.9924 4.171-5.019 9.258-8.4449 15.264-8.2776 6.45.2231 10.871 2.9557 13.262 8.1978l-5.992 38.3187c-4.948 5.688-11.635 9.414-18.03 9.191-4.17-.167-7.367-1.813-9.592-4.936z" fill-rule="evenodd"/></g></svg>

<svg width="173" height="168" viewBox="0 0 173 168" fill="none" xmlns="http://www.w3.org/2000/svg">
<circle cx="84" cy="15" r="15" fill="white"/>
<path fill-rule="evenodd" clip-rule="evenodd" d="M84.6051 97.5238L79.2369 129.249C77.6244 141.272 72.5087 150.79 63.89 157.804C55.2712 164.817 44.5951 168.212 31.8616 167.99C25.6338 167.878 19.6841 166.515 14.0124 163.899C8.34073 161.338 3.66992 157.804 0 153.295L11.677 138.934C16.9039 145.558 23.4652 148.981 31.3611 149.204C37.4777 149.427 42.7045 147.812 47.0417 144.361C51.3789 140.966 54.3259 136.151 55.8829 129.917L57.2174 124.49L65.9327 68.853L69.3114 50.6832L70.7457 42L94 42L89.2146 70.2814C91.5375 64.0455 94.694 58.5806 98.6841 53.8869C106.135 45.1315 115.505 40.8374 126.792 41.0047C136.412 41.2278 143.585 43.7132 148.311 50.461L150.037 41.7614H173L158.237 129.176C156.624 141.222 151.509 150.758 142.89 157.784C134.271 164.811 123.595 168.213 110.862 167.99C104.634 167.878 98.6841 166.512 93.0124 163.891C87.3407 161.326 82.6699 157.784 79 153.267L90.677 138.879C95.9039 145.516 102.465 148.945 110.361 149.168C116.478 149.391 121.705 147.774 126.042 144.317C130.379 140.915 133.326 136.091 134.883 129.845L136.217 124.408C129.656 130.988 122.288 135.167 114.114 134.944C105.329 134.832 98.3505 131.57 93.1792 125.157C88.008 118.688 85.1721 110.295 84.6717 99.9782C84.6332 99.1927 84.611 98.3746 84.6051 97.5238ZM111.445 110.434C109.277 107.256 108.193 103.045 108.193 97.8033C108.137 95.2938 108.304 92.0035 108.693 87.9325C109.749 79.6233 112.363 72.9591 116.533 67.9401C120.704 62.9211 125.791 59.4952 131.797 59.6625C138.247 59.8856 142.668 62.6182 145.059 67.8603L139.067 106.179C134.119 111.867 127.432 115.593 121.037 115.37C116.867 115.203 113.67 113.557 111.445 110.434Z" fill="white"/>
</svg>
